!!!COA:	Josquin des Prez
!!!CDT:	~1450-1521/08/27
!!!COM:	Brumel
!!!OTL:	Credo Chascun me crie
!!!ONB:	Credo Chascun me crie (des rouges nes)
!!!AGN:	Mass section; Credo
!!!SCT:	NJE 13.1
!!!SCA:	New Josquin Edition 13.1
!!!voices:	4
**kern	**kern	**kern	**kern
*staff4	*staff3	*staff2	*staff1
*Ivox	*Ivox	*Ivox	*Ivox
*I"Bassus	*I"Tenor	*I"Altus	*I"Superius
*I'B	*I'T	*I'A	*I'S
*>A	*>A	*>A	*>A
*clefF4	*clefGv2	*clefGv2	*clefG2
*k[]	*k[]	*k[]	*k[]
*M2/1	*M2/1	*M2/1	*M2/1
*met(C|)	*met(C|)	*met(C|)	*met(C|)
=1-	=1-	=1-	=1-
0r	1.B	0r	0r
.	2c\	.	.
=2	=2	=2	=2
0r	1d	0r	0r
.	1e	.	.
=3	=3	=3	=3
0r	1d	1.B	0r
.	1d	.	.
.	.	2c\	.
=4	=4	=4	=4
0r	[0G	1d	0r
.	.	1e	.
=5	=5	=5	=5
1.B	0G]	1d	0r
.	.	1d	.
2c\	.	.	.
=6	=6	=6	=6
1d	1r	[0G	0r
1e	1g	.	.
=7	=7	=7	=7
1d	1g	0G]	1.b
1d	1g	.	.
.	.	.	2cc\
=8	=8	=8	=8
0G	1g	1r	1dd
.	[1G	1g	1ee
=9	=9	=9	=9
1r	2G/]	1.g	1dd
.	2A/	.	.
1G	1B	.	1dd
.	.	2f\	.
=10	=10	=10	=10
1.c	2.c\	2e\	1g
.	.	2d\	.
.	4d\	.	.
.	4e\	[1c	1g
.	4f\	.	.
2B\	[2g\	.	.
=11	=11	=11	=11
1.A	2g\]	2c\]	1.cc
.	2.f\	4B\	.
.	.	4A/	.
.	.	1A	.
.	4d\	.	.
2G\	[2e\	.	2b\
=12	=12	=12	=12
1F	4e\]	2.c\	1a
.	4d\	.	.
.	1d	.	.
.	.	4d\	.
1E	.	4e\	1g
.	.	4f\	.
.	4c\	[2g\	.
.	4B\	.	.
=13	=13	=13	=13
0D	2d\	2g\]	0a
.	4c\	4f#i\	.
.	4B\	4e\	.
.	1A	1f#i	.
=14	=14	=14	=14
2r	[0G	0g	1.b
2G\	.	.	.
2.B\	.	.	.
.	.	.	2g/
4c\	.	.	.
=15	=15	=15	=15
2d\	0G]	2r	0g
2e\	.	2G/	.
2d\	.	2.B\	.
2d\	.	.	.
.	.	4c\	.
=16	=16	=16	=16
0G	2r	2d\	0r
.	2G/	2e\	.
.	2.B\	2d\	.
.	.	2d\	.
.	4c\	.	.
=17	=17	=17	=17
0r	2d\	0G	2r
.	2e\	.	2g/
.	2d\	.	2.b\
.	2d\	.	.
.	.	.	4cc\
=18	=18	=18	=18
0r	0G	1.g	2dd\
.	.	.	2ee\
.	.	.	2dd\
.	.	2f\	2dd\
=19	=19	=19	=19
0r	0r	2.e\	1g
.	.	4d\	.
.	.	4c\	2.cc\
.	.	4B\	.
.	.	[2A/	.
.	.	.	4b\
=20	=20	=20	=20
0r	0r	2A/]	2a/
.	.	2B\	2g/
.	.	2c\	2a/
.	.	2d\	2b\
=21	=21	=21	=21
0r	0r	2e\	2g/
.	.	2f\	1dd
.	.	2g\	.
.	.	[2a\	[2cc\
=22	=22	=22	=22
0r	0r	4a\]	4cc\]
.	.	4g\	4b\
.	.	4f#i\	4a/
.	.	4e\	4g/
.	.	1f#i	1a
=23	=23	=23	=23
1r	1r	0g	1g
[1G	[1B	.	1r
=24	=24	=24	=24
2G\]	2B\]	1r	1.g
2G\	2B\	.	.
2G\	2B\	[1G	.
2G\	2B\	.	2g/
=25	=25	=25	=25
1E	1B	2G/]	1g
.	.	2G/	.
1E	1c	2G/	1g
.	.	2G/	.
=26	=26	=26	=26
1D	1d	2.A/	1f
.	.	4B\	.
1C	1e	1c	1g
=27	=27	=27	=27
1G	1d	1d	1b-i
2F\	1d	2r	2a/
[2G\	.	[2d\	[2b-i\
=28	=28	=28	=28
2G\]	0G	2d\]	4b-\]
.	.	.	4a/
2A\	.	2c\	1a
1B-i	.	2.d\	.
.	.	.	2g/
.	.	4e\	.
=29	=29	=29	=29
1.A	0c	2f\	0a
.	.	2e\	.
.	.	[1a	.
2B\	.	.	.
=30	=30	=30	=30
2c\	1A	2a\]	0r
1d	.	4g\	.
.	.	4f\	.
.	1A	1e	.
2c\	.	.	.
=31	=31	=31	=31
1d	1.B	1.d	0r
1G	.	.	.
.	4A/	4c\	.
.	4G/	4B\	.
=32	=32	=32	=32
2r	1G	2.B\	0r
2.d\	.	.	.
.	.	4G/	.
.	1d	2G/	.
4c\	.	.	.
2B\	.	2d\	.
=33	=33	=33	=33
2A\	2.c\	1.e	0cc
2.c\	.	.	.
.	4B\	.	.
.	4A/	.	.
4B\	4G/	.	.
4A\	[2A/	2c\	.
4G\	.	.	.
=34	=34	=34	=34
2F\	2A/]	1c	1a
2E\	1G	.	.
1D	.	1d	1a
.	2F#i/	.	.
=35	=35	=35	=35
2r	1G	1B	1.b
2.G\	.	.	.
.	2r	1G	.
4A\	.	.	.
2B\	2d\	.	4a/
.	.	.	4g/
=36	=36	=36	=36
2.c\	2e\	2r	1g
.	2.g\	2c\	.
4B\	.	.	.
2G\	.	2d\	1dd
.	4f\	.	.
2B\	2d\	2G/	.
=37	=37	=37	=37
2.A\	2e\	2c\	2.cc\
.	2.f\	1F	.
4G\	.	.	4b\
2.F\	.	.	4a/
.	4e\	.	4g/
.	4d\	[2f\	[2a/
4E\	4c\	.	.
=38	=38	=38	=38
2D\	2d\	4f\]	2a/]
.	.	4e\	.
2E\	2G/	2c\	1g
1D	1A	1d	.
.	.	.	2f#i/
=39	=39	=39	=39
1r	0G	1.B	0g
2.B\	.	.	.
.	.	4A/	.
4c\	.	4G/	.
=40	=40	=40	=40
2d\	1r	0G	0r
2e\	.	.	.
1d	2.B\	.	.
.	4c\	.	.
=41	=41	=41	=41
0G	2d\	0r	0r
.	2e\	.	.
.	1d	.	.
=42	=42	=42	=42
2r	1G	0r	0r
2d\	.	.	.
2.c\	2r	.	.
.	2d\	.	.
4B\	.	.	.
=43	=43	=43	=43
2A\	2.c\	0r	0r
2G\	.	.	.
.	4B\	.	.
2F\	2A/	.	.
2E\	2G/	.	.
=44	=44	=44	=44
1D	2A/	1r	2r
.	2B\	.	2dd\
1r	1G	2r	2b\
.	.	2g\	2b\
=45	=45	=45	=45
0r	0r	2e\	2.cc\
.	.	2e\	.
.	.	.	4a/
.	.	2.f\	1a
.	.	4d\	.
=46	=46	=46	=46
0r	0r	1d	2r
.	.	.	2dd\
.	.	2r	2.ee\
.	.	2g\	.
.	.	.	4dd\
=47	=47	=47	=47
0r	0r	2.a\	2cc\
.	.	.	2b\
.	.	4g\	.
.	.	2f\	2a/
.	.	2e\	2g/
=48	=48	=48	=48
0r	0r	2d\	1a
.	.	2c\	.
.	.	2d\	1b
.	.	[2e\	.
=49	=49	=49	=49
0r	0r	4e\]	1g
.	.	4c\	.
.	.	1c	.
.	.	.	2.cc\
.	.	[2f\	.
.	.	.	4b\
=50	=50	=50	=50
0r	0r	4f\]	4a/
.	.	4e\	4g/
.	.	4d\	2.a/
.	.	4c\	.
.	.	2.d\	.
.	.	.	4g/
.	.	.	4f/
.	.	4c\	4e/
=51	=51	=51	=51
0r	0r	4B\	2d/
.	.	4A/	.
.	.	2G/	1g
.	.	1A	.
.	.	.	2f#i/
=52	=52	=52	=52
0r	1r	4G/	2g/
.	.	4A/	.
.	.	4B\	1dd
.	.	4c\	.
.	2.B\	2d\	.
.	.	2e\	4cc\
.	4c\	.	4b\
=53	=53	=53	=53
0r	2d\	2f\	2a/
.	2e\	1g	2g/
.	1d	.	1a
.	.	2f#i\	.
=54	=54	=54	=54
1r	0G	2g\	2r
.	.	2G/	1dd
2.B\	.	2.d\	.
.	.	.	4cc\
4c\	.	4e\	4b\
=55	=55	=55	=55
2d\	0r	2f\	2a/
2e\	.	1g	2g/
1d	.	.	1a
.	.	2f#i\	.
=56	=56	=56	=56
1G	2r	1g	0g
.	2d\	.	.
2r	2.g\	1r	.
2G\	.	.	.
.	4f\	.	.
=57	=57	=57	=57
2.c\	2e\	0r	0r
.	2d\	.	.
4B\	.	.	.
2A\	1e	.	.
2G\	.	.	.
=58	=58	=58	=58
1A	2.f\	1r	0r
.	4d\	.	.
2.B\	1d	2r	.
.	.	2d\	.
4G\	.	.	.
=59	=59	=59	=59
0G	0r	2.g\	2r
.	.	.	2dd\
.	.	4f\	.
.	.	2e\	2.gg\
.	.	2d\	.
.	.	.	4ff\
=60	=60	=60	=60
0r	0r	2c\	2ee\
.	.	2.f\	2dd\
.	.	.	2ee\
.	.	4e\	.
.	.	[2a\	[2ff\
=61	=61	=61	=61
0r	0r	4a\]	4ff\]
.	.	4g\	4ee\
.	.	4f\	1dd
.	.	4d\	.
.	.	1e	.
.	.	.	2cc#i\
=62	=62	=62	=62
0r	0r	2d\	1dd
.	.	2G/	.
.	.	2.c\	2r
.	.	.	2g/
.	.	4B\	.
=63	=63	=63	=63
1r	2r	2A/	2.cc\
.	2G/	2G/	.
.	.	.	4b\
2r	2.c\	2F/	2a/
2C/	.	[2c\	2g/
.	4B\	.	.
=64	=64	=64	=64
1.F	4A/	2c\]	1.a
.	4G/	.	.
.	2A/	2.c\	.
.	2F/	.	.
.	.	4A/	.
2E\	2G/	4B\	2g/
.	.	4c\	.
=65	=65	=65	=65
2D\	0A	2d\	2f/
2C/	.	2e\	1g
1D	.	1d	.
.	.	.	2f#i/
=66	=66	=66	=66
1.E	1G	1B	0g
.	2.e\	[1c	.
2C/	.	.	.
.	4f\	.	.
=67	=67	=67	=67
[0C	2g\	2c\]	1r
.	2a\	2c\	.
.	2g\	2c\	2.e/
.	2g\	2c\	.
.	.	.	4f/
=68	=68	=68	=68
0C]	2.c\	2.e\	2g/
.	.	.	2a/
.	4d\	4f\	.
.	2e\	2g\	2g/
.	4c\	2e\	2g/
.	4d\	.	.
=69	=69	=69	=69
1r	4e\	2g\	4c/
.	4f\	.	4d/
.	1g	4c\	4e/
.	.	4d\	4f/
2.E\	.	4e\	2.g/
.	.	4f\	.
.	4f\	[2g\	.
4F\	4e\	.	4a/
=70	=70	=70	=70
2G\	2d\	2g\]	2b\
2A\	2c\	2f\	1cc
2G\	1d	[1g	.
2G\	.	.	2b\
=71	=71	=71	=71
0C	0c	2g\]	1cc
.	.	2e\	.
.	.	1e	2r
.	.	.	2g/
=72	=72	=72	=72
0r	0r	2r	2.cc\
.	.	2c\	.
.	.	.	4b\
.	.	2.f\	2a/
.	.	.	2g/
.	.	4e\	.
=73	=73	=73	=73
0r	1r	2d\	1a
.	.	2c\	.
.	2r	1d	2.b\
.	2G/	.	.
.	.	.	4g/
=74	=74	=74	=74
0r	2.c\	2.e\	2g/
.	.	.	2g/
.	4B\	4c\	.
.	4A/	1c	2.cc\
.	4G/	.	.
.	2A/	.	.
.	.	.	4b\
=75	=75	=75	=75
2r	2F/	2r	2a/
2C/	2G/	2c\	2g/
[1F	1A	2c\	2f/
.	.	2c\	[2a/
=76	=76	=76	=76
2F\]	2F/	1c	4a/]
.	.	.	4g/
2E\	2G/	.	1g
1D	1A	1d	.
.	.	.	2f#i/
=77	=77	=77	=77
1.E	0G	1B	0g
.	.	2.e\	.
2C/	.	.	.
.	.	4f\	.
=78	=78	=78	=78
[0C	2.e\	2g\	1r
.	.	2g\	.
.	4f\	.	.
.	2g\	2g\	2.e/
.	2g\	2g\	.
.	.	.	4f/
=79	=79	=79	=79
0C]	2g\	2.c\	2g/
.	2g\	.	2g/
.	.	4d\	.
.	2c\	4e\	2g/
.	.	4f\	.
.	[2e\	[2g\	2g/
=80	=80	=80	=80
1r	4e\]	4g\]	2c/
.	4f\	4f\	.
.	1g	1e	2.e/
2.E\	.	.	.
.	.	.	4f/
.	4f\	4d\	[2g/
4F\	4e\	4c\	.
=81	=81	=81	=81
2G\	2d\	2.B\	2g/]
2G\	2G/	.	4f/
.	.	4A/	4e/
2G\	[1g	1B	1d
2G\	.	.	.
=82	=82	=82	=82
0C	2g\]	1c	2r
.	2e\	.	2g/
.	1e	2r	1cc
.	.	2c\	.
=83	=83	=83	=83
0r	1r	1f	2a/
.	.	.	2a/
.	2r	2d\	2.b\
.	2G/	2d\	.
.	.	.	4g/
=84	=84	=84	=84
2r	1c	1e	1g
2C/	.	.	.
1F	2A/	1c	1r
.	2A/	.	.
=85	=85	=85	=85
2D\	1B	1r	0r
2D\	.	.	.
1E	2G/	2r	.
.	2g\	2e\	.
=86	=86	=86	=86
1C	2g\	2e\	0r
.	2.g\	2.e\	.
2.E\	.	.	.
.	4f\	4d\	.
.	2e\	2c\	.
4F\	.	.	.
=87	=87	=87	=87
2G\	4d\	2B\	0r
.	4c\	.	.
2A\	1c	2c\	.
2G\	.	1d	.
2G\	2B\	.	.
=88	=88	=88	=88
0C	1.c	0e	1r
.	.	.	1g
.	2B\	.	.
=89	=89	=89	=89
0r	2A/	1c	1.cc
.	2G/	.	.
.	1F	[1f	.
.	.	.	2a/
=90	=90	=90	=90
0r	0r	2f\]	1a
.	.	2d\	.
.	.	1d	[1b
=91	=91	=91	=91
1r	1G	1.e	2b\]
.	.	.	2g/
1C	[1c	.	1g
.	.	2c\	.
=92	=92	=92	=92
1.F	2c\]	1c	0r
.	2A/	.	.
.	1A	1c	.
2D\	.	.	.
=93	=93	=93	=93
1D	1.B	1d	1r
[1E	.	1G	2r
.	2G/	.	[2g/
=94	=94	=94	=94
2E\]	1G	[0gl	4g/]
.	.	.	4f/
2C/	.	.	4e/
.	.	.	4d/
1C	1c	.	1e
=95	=95	=95	=95
0Gl	0Bl	0g]	0dl
!!LO:LB:i:g=z
=96||	=96||	=96||	=96||
*>B	*>B	*>B	*>B
*clefF4	*clefGv2	*clefGv2	*clefG2
*k[]	*k[]	*k[]	*k[]
*M2/1	*M2/1	*M2/1	*M2/1
*met(C|)	*met(C|)	*met(C|)	*met(C|)
!!!OMD: Crucifixus
!!section: Crucifixus
0r	0r	1G	0r
.	.	2B\	.
.	.	2B\	.
=97	=97	=97	=97
0r	1G	2.B\	1r
.	.	4G/	.
.	2B\	1G	1g
.	2B\	.	.
=98	=98	=98	=98
1G	2.B\	0r	2b\
.	.	.	2b\
.	4G/	.	.
2B\	1G	.	2.b\
2B\	.	.	.
.	.	.	4g/
=99	=99	=99	=99
2.B\	0r	1r	1g
4G\	.	.	.
1G	.	2r	2r
.	.	2d\	2dd\
=100	=100	=100	=100
1r	0r	2.e\	2.cc\
.	.	4d\	4b\
2r	.	2c\	2a/
2d\	.	2B\	2g#i/
=101	=101	=101	=101
2.c\	1r	1A	1a
4B\	.	.	.
2A\	2r	2r	1r
2G\	2g\	2d\	.
=102	=102	=102	=102
2.A\	2.f\	2.c\	0r
4G\	4e\	4B\	.
2F\	2d\	2A/	.
2E\	2c#i\	2G/	.
=103	=103	=103	=103
0D	2d\	1A	2r
.	2d\	.	2dd\
.	2d\	1r	2a/
.	2d\	.	2b\
=104	=104	=104	=104
0r	2A/	0r	2.cc\
.	2.c\	.	.
.	.	.	4b\
.	.	.	4a/
.	4B\	.	4g/
.	4A/	.	[2a/
.	4G/	.	.
=105	=105	=105	=105
0r	2F/	0r	2a/]
.	2G/	.	1g
.	1A	.	.
.	.	.	2f#i/
=106	=106	=106	=106
2r	2G/	2r	2g/
1G	1g	1d	1b
2G\	2g\	2d\	2b\
=107	=107	=107	=107
2G\	2g\	2d\	2b\
2G\	2g\	2d\	2b\
2G\	2g\	2d\	2b\
2G\	2g\	2d\	2b\
=108	=108	=108	=108
0D	0f	0d	0a
=109	=109	=109	=109
0r	0r	1G	0r
.	.	2B\	.
.	.	2B\	.
=110	=110	=110	=110
0r	1G	2.B\	1r
.	.	4G/	.
.	2B\	1G	1g
.	2B\	.	.
=111	=111	=111	=111
1G	2.B\	0r	2b\
.	.	.	2b\
.	4G/	.	.
2B\	1G	.	2.b\
2B\	.	.	.
.	.	.	4g/
=112	=112	=112	=112
2.B\	0r	1r	1g
4G\	.	.	.
1G	.	2r	2r
.	.	2d\	2dd\
=113	=113	=113	=113
1r	0r	2.e\	2.cc\
.	.	4d\	4b\
2r	.	2c\	2a/
2d\	.	2B\	2g#i/
=114	=114	=114	=114
2.c\	1r	1A	1a
4B\	.	.	.
2A\	2r	2r	1r
2G\	2g\	2d\	.
=115	=115	=115	=115
2.A\	2.f\	2.c\	0r
4G\	4e\	4B\	.
2F\	2d\	2A/	.
2E\	2c#i\	2G/	.
=116	=116	=116	=116
0D	2d\	2A/	2r
.	2d\	2f\	2dd\
.	2d\	2f\	2a/
.	2d\	2f\	2b\
=117	=117	=117	=117
0r	2.e\	2.g\	2.cc\
.	4d\	4f\	4b\
.	4c\	4e\	4a/
.	4B\	4d\	4g/
.	[2c\	[2e\	[2a/
=118	=118	=118	=118
0r	4c\]	2e\]	2a/]
.	4B\	.	.
.	4A/	1d	1g
.	4G/	.	.
.	1A	.	.
.	.	2c\	2f#i/
=119	=119	=119	=119
0r	[0G	1d	0g
.	.	2.B\	.
.	.	4c\	.
=120	=120	=120	=120
1r	0G]	2d\	0r
.	.	2e\	.
2.B\	.	2d\	.
.	.	2d\	.
4c\	.	.	.
=121	=121	=121	=121
2d\	0r	2.G/	0r
2e\	.	.	.
.	.	4A/	.
2d\	.	4B\	.
.	.	4c\	.
2d\	.	[2d\	.
=122	=122	=122	=122
2G\	0r	4d\]	0r
.	.	4e\	.
2d\	.	4f\	.
.	.	4g\	.
2.c\	.	2a\	.
.	.	2g\	.
4B\	.	.	.
=123	=123	=123	=123
2A\	0r	2f\	0r
2G\	.	2.g\	.
2A\	.	.	.
.	.	4f#i\	.
2A\	.	4f#i\	.
.	.	4e\	.
=124	=124	=124	=124
1G	2r	1g	2r
.	2G/	.	2b\
1r	2A/	1r	2a/
.	2A/	.	2cc\
=125	=125	=125	=125
0r	2G/	0r	2b\
.	2B\	.	2g/
.	2A/	.	2g/
.	2A/	.	2f#i/
=126	=126	=126	=126
2r	1G	2r	1g
2G\	.	2B\	.
2A\	1r	2A/	1r
2A\	.	2c\	.
=127	=127	=127	=127
2G\	0r	2B\	0r
2B\	.	2G/	.
2A\	.	2G/	.
2A\	.	2F#i/	.
=128	=128	=128	=128
2G\	2r	2G/	2r
2G\	2G/	2.d\	2b\
2F\	2A/	.	2a/
.	.	4c\	.
2F\	2A/	2A/	2cc\
=129	=129	=129	=129
2G\	1G	2B\	2b\
2E\	.	2c\	2g/
1D	1A	2.d\	2g/
.	.	.	2f#i/
.	.	4c\	.
=130	=130	=130	=130
0r	1G	4B\	1g
.	.	4A/	.
.	.	1G	.
.	2d\	.	2b\
.	2e\	4F/	2cc\
.	.	4E/	.
=131	=131	=131	=131
0r	2f\	2D/	2dd\
.	2.g\	2G/	2dd\
.	.	1B	2dd\
.	4f\	.	.
.	2d\	.	2dd\
=132	=132	=132	=132
0r	2e\	1A	2.cc\
.	2f\	.	.
.	.	.	4dd\
.	2g\	2G/	4ee\
.	.	.	4cc\
.	2a\	2F/	[2ff\
=133	=133	=133	=133
0r	1d	1B-i	4ff\]
.	.	.	4ee\
.	.	.	1dd
.	1e	1A	.
.	.	.	2cc#i\
=134	=134	=134	=134
*M3/3%2	*M3/3%2	*M3/3%2	*M3/3%2
*met(C|3)	*met(C|3)	*met(C|3)	*met(C|3)
3%4G	3%4d	3%2B-i	3%4.dd
.	.	3%2G	.
3%2G	3%2r	3%2d	.
=135	=135	=135	=135
3%2F	0r	3%2d	3%4.r
3%2G	.	3%2B	.
3%2E	.	3%2c	.
=136	=136	=136	=136
3%2D	3%2r	3%4d	3%2r
3%2.G	3%2r	.	3%2r
.	3%2G	3%2g	3%2dd
3A\	.	.	.
=137	=137	=137	=137
3%2B	3%2d	3%2f	3%2dd
3%2G	3%2d	3%2g	3%2b
3%2A	3%2c	3%2e	3%2cc
=138	=138	=138	=138
*M2/1	*M2/1	*M2/1	*M2/1
*met(C|)	*met(C|)	*met()	*met(C|)
!!primary-mensuration: met(C|)
2.D\	2.f\	3%2d	2dd\
.	.	.	2a/
.	.	3%2r	.
4E\	4e\	.	.
4F\	2d\	.	2b\
4G\	.	.	.
.	.	3%2r	.
4A\	2c\	.	2a/
4F\	.	.	.
=139	=139	=139	=139
*	*	*M2/1	*
*	*	*met(C|)	*
1G	2B\	2.d\	1b
.	2G/	.	.
.	.	4e\	.
1D	2.d\	4f\	1a
.	.	4g\	.
.	.	4a\	.
.	4c\	4f\	.
=140	=140	=140	=140
2G\	2B\	2g\	2g/
2D\	2A/	2a\	2f/
2G\	2B\	[1d	2g/
2F\	2A/	.	2a/
=141	=141	=141	=141
1G	2B\	0d]	2.d/
.	2G/	.	.
.	.	.	4e/
1D	1A	.	4f/
.	.	.	4g/
.	.	.	4a/
.	.	.	4f#i/
=142	=142	=142	=142
2r	1G	1r	1g
1G	.	.	.
.	2B\	2e\	1r
2A\	2c\	2f\	.
=143	=143	=143	=143
2B\	2d\	2g\	0r
2B\	2d\	2g\	.
2B\	2d\	2g\	.
2B\	2d\	2g\	.
=144	=144	=144	=144
2.A\	2.c\	2.f\	0r
4B\	4d\	4g\	.
2c\	2e\	4a\	.
.	.	4f\	.
[2d\	[2f\	[2b-i\	.
=145	=145	=145	=145
2d\]	4f\]	4b-\]	0r
.	4e\	4a\	.
2B\	1d	1g	.
1A	.	.	.
.	2c\	2f#i\	.
=146	=146	=146	=146
0G	1d	2g\	1r
.	.	1d	.
.	1G	.	2b\
.	.	2e\	2cc\
=147	=147	=147	=147
0D	0A	2f\	2dd\
.	.	2d\	2dd\
.	.	2.f\	2dd\
.	.	.	2dd\
.	.	4g\	.
=148	=148	=148	=148
[0A	2r	4e\	2.cc\
.	.	4d\	.
.	2A/	4c\	.
.	.	4B\	4dd\
.	2c\	2A/	4ee\
.	.	.	4cc\
.	2A/	[2a\	[2ff\
=149	=149	=149	=149
0A]	2c\	2a\]	4ff\]
.	.	.	4ee\
.	2d\	2f\	1dd
.	1e	1e	.
.	.	.	2cc#i\
=150	=150	=150	=150
2r	1f	1d	1dd
2D\	.	.	.
2E\	1g	1G	1r
2F\	.	.	.
=151	=151	=151	=151
2G\	2r	0r	0r
2E\	2G/	.	.
2F\	2A/	.	.
2G\	2B\	.	.
=152	=152	=152	=152
2A\	2c\	0r	0r
2F\	2A/	.	.
2G\	2B\	.	.
2A\	2c\	.	.
=153	=153	=153	=153
1.B-i	2.d\	2r	2r
.	.	1d	1dd
.	4e\	.	.
.	2f\	.	.
4A\	2g\	2d\	2dd\
4G\	.	.	.
=154	=154	=154	=154
2B-i\	2f\	2d\	2dd\
2G\	2g\	2d\	2dd\
1B-i	2f\	1d	1dd
.	2g\	.	.
=155	=155	=155	=155
0A	2a\	2e\	1cc
.	2f\	1a	.
.	1e	.	2cc\
.	.	2g\	2b\
=156	=156	=156	=156
0r	0r	2f\	2a/
.	.	2e\	2g/
.	.	2d\	2f/
.	.	2c#i\	2e/
=157	=157	=157	=157
2r	2r	1d	1d
1d	1f	.	.
.	.	1r	1r
2c\	2e\	.	.
=158	=158	=158	=158
2B\	2d\	0r	0r
2A\	2c\	.	.
2G\	2B\	.	.
2F#i\	2A/	.	.
=159	=159	=159	=159
0G	0G	1r	1.dd
.	.	[1g	.
.	.	.	2cc\
=160	=160	=160	=160
0r	0r	2g\]	2b\
.	.	2f\	2a/
.	.	2e\	2g/
.	.	2d\	2f/
=161	=161	=161	=161
1r	1r	2c\	1g
.	.	2B\	.
1F	2r	2c\	1a
.	2A/	2f\	.
=162	=162	=162	=162
1G	1B	4e\	1g
.	.	4d\	.
.	.	1d	.
1A	1c	.	1e
.	.	2c\	.
=163	=163	=163	=163
[0Dl	1A	2d\	[0fl
.	.	2A/	.
.	2r	1B-i	.
.	[2d\	.	.
=164	=164	=164	=164
0D_	4d\]	1A	0f_
.	4c\	.	.
.	2A/	.	.
.	1B-i	2r	.
.	.	[2d\	.
=165	=165	=165	=165
0D_	1A	4d\]	0f_
.	.	4c\	.
.	.	2A/	.
.	1d	1B-i	.
=166	=166	=166	=166
0D]	0dl	0Al	0f]
!!LO:LB:i:g=z
=167||	=167||	=167||	=167||
*>C	*>C	*>C	*>C
*clefF4	*clefGv2	*clefGv2	*clefG2
*k[]	*k[]	*k[]	*k[]
*M2/1	*M2/1	*M2/1	*M2/1
*met(C|)	*met(C|)	*met(C|)	*met(C|)
!!!OMD: Et unam
!!section: Et unam
0r	1.B	0r	0r
.	2c\	.	.
=168	=168	=168	=168
0r	1d	0r	0r
.	1e	.	.
=169	=169	=169	=169
1r	2d\	2r	0r
.	2B\	2d\	.
2r	2c\	2e\	.
2D\	2d\	2f\	.
=170	=170	=170	=170
2E\	1G	1g	1r
2F\	.	.	.
1G	1B	2r	2r
.	.	2d\	2dd\
=171	=171	=171	=171
1r	1A	2.e\	2.cc\
.	.	4d\	4b\
2r	2r	2c\	2a/
2d\	2d\	2B\	2g#i/
=172	=172	=172	=172
2.c\	2.e\	4A/	1a
.	.	4B\	.
.	.	4c\	.
4B\	4d\	4d\	.
2A\	2c\	4e\	2r
.	.	4f\	.
2G\	2B\	2g\	2dd\
=173	=173	=173	=173
2A\	1A	2e\	4cc\
.	.	.	4b\
2F\	.	2.f\	4a/
.	.	.	4g/
1D	1d	.	2a/
.	.	4e\	.
.	.	[2d\	[2b\
=174	=174	=174	=174
1E	1G	2d\]	4b\]
.	.	.	4a/
.	.	2c\	1g
1D	1A	1d	.
.	.	.	2f#i/
=175	=175	=175	=175
*M3/3%2	*M3/3%2	*M3/3%2	*
*met(3)	*met(3)	*met(3)	*
3%4.r	3%4G	3%2B	0g
.	.	3%2B	.
.	3%2r	3%2B	.
=176	=176	=176	=176
3%4.r	3%2B	3%4G	0r
.	3%2B	.	.
.	3%2B	3%2G	.
=177	=177	=177	=177
3%2B	3%4G	3%2d	0r
3%2B	.	3%2e	.
3%2B	3%2G	3%2d	.
=178	=178	=178	=178
3%2.G	3%4d	3%4B	0r
3A\	.	.	.
3%2B	3%2d	3%2r	.
=179	=179	=179	=179
3%2.c	3%2.e	3%4.r	0r
3B\	3d\	.	.
3%2A	3%2c	.	.
=180	=180	=180	=180
3%2G	3%2B	3%4.r	0r
3%2.F#i	3%4A	.	.
3E\	.	.	.
=181	=181	=181	=181
*M2/1	*M2/1	*M2/1	*
*met(C|)	*met(C|)	*met(C|)	*
0G	0G	1r	1r
.	.	2r	2r
.	.	2g\	2b\
=182	=182	=182	=182
0r	0r	2g\	2b\
.	.	2f\	2a/
.	.	2g\	2b\
.	.	2e\	2cc\
=183	=183	=183	=183
1r	1r	1d	0dd
2r	2r	1G	.
2G\	2B\	.	.
=184	=184	=184	=184
2G\	2B\	1r	1r
2F\	2A/	.	.
2G\	2B\	2r	2dd\
2E\	2c\	2g\	2ee\
=185	=185	=185	=185
1D	1d	1f	2ff\
.	.	.	1dd
1r	2r	1e	.
.	2A/	.	2cc#i\
=186	=186	=186	=186
0r	1B	1d	1dd
.	1A	1r	2r
.	.	.	2cc\
=187	=187	=187	=187
2r	2G/	0r	1b
2G\	2B\	.	.
1F	2c\	.	1a
.	[2d\	.	.
=188	=188	=188	=188
1E	4d\]	2r	2g/
.	4c#i\	.	.
.	4c#i\	2g\	2.cc\
.	4B\	.	.
1D	1d	1f	.
.	.	.	4a/
.	.	.	[2dd\
=189	=189	=189	=189
1r	1r	1e	2dd\]
.	.	.	2cc#i\
2r	2r	1d	1dd
2G\	2B\	.	.
=190	=190	=190	=190
2G\	2B\	0r	0r
2F\	2A/	.	.
2G\	2B\	.	.
2E\	2c\	.	.
=191	=191	=191	=191
1D	0d	1r	1r
1G	.	2r	2r
.	.	2g\	2b\
=192	=192	=192	=192
0r	0r	2g\	2b\
.	.	2f\	2a/
.	.	2g\	2b\
.	.	2e\	2cc\
=193	=193	=193	=193
0r	2r	1d	1dd
.	1f	.	.
.	.	1r	2dd\
.	2e\	.	2cc\
=194	=194	=194	=194
0r	2d\	0r	4b\
.	.	.	4a/
.	2c\	.	1a
.	1B	.	.
.	.	.	2g#i/
=195	=195	=195	=195
*M3/3%2	*	*M3/3%2	*M3/3%2
*met(3)	*	*met(3)	*met(3)
!!primary-mensuration: met(3)
3%2.D	1A	3%2f	3%4a
.	.	3%2f	.
3E\	1r	.	.
3%2F	.	3%2f	3%2a
=196	=196	=196	=196
*	*M3/3%2	*	*
*	*met(3)	*	*
3%2G	3%2.G	3%4d	3%4b
3%2G	.	.	.
.	3A/	.	.
3%2G	3%2B	3%2d	3%2b
=197	=197	=197	=197
3%2.E	3%2c	3%2e	3%2.g
.	3%2e	3%2.g	.
3F\	.	.	3a/
3%2G	3%2d	.	3%2b
.	.	3f\	.
=198	=198	=198	=198
3%2.A	3%2c	3e\	3%2.cc
.	.	3d\	.
.	3%2A	3%2.c	.
3G\	.	.	3b\
3%2F	3%2c	.	3a/
.	.	3A/	3g/
=199	=199	=199	=199
3%2E	3%2G	3B\	3%4g
.	.	3c\	.
3%4D	3%4A	3%4d	.
.	.	.	3%2f#i
=200	=200	=200	=200
*M2/1	*M2/1	*M2/1	*M2/1
*met(C|)	*met(C|)	*met(C|)	*met(C|)
2r	1G	2r	1g
2d\	.	2B\	.
2c\	1r	2c\	2r
2B\	.	2d\	2dd\
=201	=201	=201	=201
2.A\	1r	2e\	2.cc\
.	.	2c\	.
4G\	.	.	4b\
2F\	2r	2d\	2a/
2E\	2g\	2e\	2g/
=202	=202	=202	=202
[0D	2.f\	2f\	2.a/
.	.	1d	.
.	4e\	.	4g/
.	4d\	.	2a/
.	4c\	.	.
.	[2d\	[2f\	2b\
=203	=203	=203	=203
0D]	2d\]	4f\]	4a/
.	.	4e\	4g/
.	2B\	4d\	1g
.	.	4c\	.
.	1A	1d	.
.	.	.	2f#i/
=204	=204	=204	=204
[0Gl	[0Gl	2r	[0gl
.	.	2.d\	.
.	.	4c\	.
.	.	4B\	.
.	.	4A/	.
=205	=205	=205	=205
0G]	0G]	0Bl	0g]
==	==	==	==
*-	*-	*-	*-
!!!RDF**kern: l=long note in original notation
!!!RDF**kern: i=editorial accidental
!!!ENC:	Jesse Rodin; Victoria Chang 2012/01/29
!!!END:	2012/01/29/
!!!EED:	Jesse Rodin
!!!EEV:	2013/10/25/
!!attribution-level@Jos: 3 (tricky)
!!!ONB:	Translated from MusicXML and edited on 2012/03/20/ by Craig Sapp
!!muse2ps: C^@{COA}?\n@{SCT}^i2I150v95,95,95,150Q16c85
